image/icons/cart-icon.svg

<svg width="18" height="21" viewBox="0 0 18 21" fill="none" xmlns="http://www.w3.org/2000/svg">
<path d="M4 7V5C4 3.67392 4.52678 2.40215 5.46447 1.46447C6.40215 0.526784 7.67392 0 9 0C10.3261 0 11.5979 0.526784 12.5355 1.46447C13.4732 2.40215 14 3.67392 14 5V7H17C17.2652 7 17.5196 7.10536 17.7071 7.29289C17.8946 7.48043 18 7.73478 18 8V20C18 20.2652 17.8946 20.5196 17.7071 20.7071C17.5196 20.8946 17.2652 21 17 21H1C0.734784 21 0.48043 20.8946 0.292893 20.7071C0.105357 20.5196 0 20.2652 0 20V8C0 7.73478 0.105357 7.48043 0.292893 7.29289C0.48043 7.10536 0.734784 7 1 7H4ZM4 9H2V19H16V9H14V11H12V9H6V11H4V9ZM6 7H12V5C12 4.20435 11.6839 3.44129 11.1213 2.87868C10.5587 2.31607 9.79565 2 9 2C8.20435 2 7.44129 2.31607 6.87868 2.87868C6.31607 3.44129 6 4.20435 6 5V7Z" fill="#122947"/>
</svg>

<svg width="18" height="21" fill="none" xmlns="http://www.w3.org/2000/svg"><path d="M4 7V5a5 5 0 1110 0v2h3a1 1 0 011 1v12a1 1 0 01-1 1H1a1 1 0 01-1-1V8a1 1 0 011-1h3zm0 2H2v10h14V9h-2v2h-2V9H6v2H4V9zm2-2h6V5a3 3 0 00-6 0v2z" fill="#122947"/></svg>
